X: 10904
T: The CALEDONIAN HUNT
C: Sir Alexander Don
Q: "Strathspey."
%R: strathspey
B: W. Hamilton "Universal Tune-Book" Vol. 1 Glasgow 1844 p.90 #4 (and p.91 #1)
S: http://imslp.org/wiki/Hamilton's_Universal_Tune-Book_(Various)
Z: 2016 John Chambers <jc:trillian.mit.edu>
M: C
L: 1/16
K: D
% - - - - - - - - - - - - - - - - - - - - - - - - -
A2 |\
F3Ad2A2 Bd3A3F | GB3A3F B2E2E2G2 |\
F2A2d2A2 B2d2A2F2 | GB3A2G2  F2D2D2zG |\
F3Ad2A2 Bd3A3F | GB3A3F B2E2E2G2 |
F3Ad3A Bcd2 A2G2 | F2A2E2g2 f2d2d2 |]\
f2 |\
defg af3 bg3a3f | defg af3 ge3e3f |\
defg a3f bg3af3 |
Aa3a2g2 f2d2d2zf |\
defg af3 bg3a3f | defg a3f g2e2e3g |\
f3de2f2 d3BA2F2 | A2B2d2e2 f2d2d2 |]
% - - - - - - - - - - - - - - - - - - - - - - - - -

% (Continued from previous page)

%%sep 1 1 500
%%sep 1 1 500

